X:1
P: Batchelder's Reel
I: Batchelder's
C: New England
C: from Mary Lou Knack, arr. T. Traub 8-10-03
M: C|
Z: Transcribed to abc by Mary Lou Knack
R: reel
K: F
|: c2| "F"f2af "C7"efge| "F"f2c2 c2=Bc| "Bb"dc_BA BAGF| "C7"EFGA Bcde|"F"f2af "C7"efge|
"F"f2c2 c2=Bc| "Bb"dcBA "Gm"BAGF| "C7"EFGE "F"F2 :||: cB |"F"A2cA cAcA| "Bb"B2dB dBdB|
"F"A2cA cAcA| "Gm"BAGF "C7"EFGB|"F"A2cA cAcA| "Bb"B2dB dBdB| "F"Acfa "C7"bgeg| "F"f2 a2 f2 :|
